X: 32369
T: Pipe On The Hob, The
R: jig
M: 6/8
K: Adorian
|:AB|c2c edc|edc BAG|A3 g3|eaf ged|
c2c edc|edc deg|age dBe|ABA A2:|
|:f|g3 gea|age dBe|A3 g3|eaf gef|
g3 gea|age de/f/g|age dBe|ABA A2:|
|:B|c2c dB/c/d|ecA AGE|c2c dB/c/d|ecA A2B|
cBc dB/c/d|ede gab|age dBe|ABA A2:|

